dist/svg/static/parking-out-right-long-large.svg

<svg xmlns="http://www.w3.org/2000/svg" width="48" height="48" viewBox="0 0 48 48"><g fill="none" stroke="currentColor" stroke-miterlimit="10"><path d="M27.5 46v-4.5h-15c-2.2 0-4-2.3-4-4.5V10c0-2.2 1.8-3.5 4-3.5h15V2M32 7l5.5-5.5L43 7"/><path d="M37.5 1.5v8c0 5-3.5 9-8.5 9h-1c-5 0-9.5 4-9.5 9V36"/></g></svg>

<?xml version="1.0" encoding="UTF-8" standalone="no"?>
<svg width="48px" height="48px" viewBox="0 0 48 48" version="1.1" xmlns="http://www.w3.org/2000/svg" xmlns:xlink="http://www.w3.org/1999/xlink">
    <!-- Generator: sketchtool 46.2 (44496) - http://www.bohemiancoding.com/sketch -->
    <title>parking-out-right-long-large</title>
    <desc>Created with sketchtool.</desc>
    <defs></defs>
    <g id="icons-published" stroke="none" stroke-width="1" fill="none" fill-rule="evenodd">
        <g id="briefing" transform="translate(-2592.000000, -1178.000000)"></g>
        <g id="parking-out-right-long-large" stroke="#000000">
            <path d="M27.5,46 L27.5,41.5 L12.5,41.5 C10.3,41.5 8.5,39.2 8.5,37 L8.5,10 C8.5,7.8 10.3,6.5 12.5,6.5 L27.5,6.5 L27.5,2 M32,7 L37.5,1.5 L43,7" id="Shape"></path>
            <path d="M37.5,1.5 L37.5,9.5 C37.5,14.5 34,18.5 29,18.5 L28,18.5 C23,18.5 18.5,22.5 18.5,27.5 L18.5,36" id="Shape"></path>
        </g>
    </g>
</svg>
